src/images/svg/markets/withdraw.svg

<svg width="32" height="32" viewBox="0 0 32 32" fill="none" xmlns="http://www.w3.org/2000/svg">
<path fill-rule="evenodd" clip-rule="evenodd" d="M0 0V5.348L2.266 8.16867C2.51933 8.48333 2.902 8.66667 3.306 8.66667H28.694C29.098 8.66667 29.4807 8.48333 29.734 8.16867L32 5.348V0H0Z" fill="#85ACAF"/>
<g style="mix-blend-mode:multiply">
<path fill-rule="evenodd" clip-rule="evenodd" d="M20.2738 13.143H19.4265C19.2305 14.327 18.4305 15.191 17.4438 15.191V14.061C17.8705 14.061 18.3445 13.4517 18.3445 12.5777C18.3445 11.7043 17.8705 11.095 17.4438 11.095C17.0172 11.095 16.5425 11.7043 16.5425 12.5777C16.5425 14.0437 15.6505 15.191 14.5112 15.191C13.5245 15.191 12.7252 14.327 12.5292 13.143H11.7258V12.013H12.5292C12.7252 10.829 13.5245 9.965 14.5112 9.965V11.095C14.0858 11.095 13.6112 11.7043 13.6112 12.5777C13.6112 13.4517 14.0858 14.061 14.5112 14.061C14.9378 14.061 15.4125 13.4517 15.4125 12.5777C15.4125 11.113 16.3045 9.965 17.4438 9.965C18.4305 9.965 19.2305 10.829 19.4265 12.013H20.2738V13.143ZM8.6665 2.927V21.5937C8.6665 22.3297 9.26317 22.927 9.99984 22.927H21.9998C22.7358 22.927 23.3332 22.3297 23.3332 21.5937V2.927H8.6665Z" fill="#FF444F"/>
</g>
<path fill-rule="evenodd" clip-rule="evenodd" d="M16.9974 24.3664L15.1288 21.5564V17.6044C15.1288 17.1618 14.7694 16.8024 14.3268 16.8024H13.2968C12.8534 16.8024 12.4948 17.1618 12.4948 17.6044V20.8118H11.7681H9.9701C9.23344 20.8118 8.63677 20.2151 8.63677 19.4784V11.8538L6.99077 13.2044C6.74344 13.4078 6.57677 13.6931 6.52277 14.0091L5.4701 20.1318C5.41277 20.4638 5.48344 20.8051 5.6681 21.0871L10.9088 28.0884C10.9481 28.1618 10.9681 28.2431 10.9681 28.3258V31.9998H17.8741L17.2074 25.0851C17.2074 24.8304 17.1348 24.5811 16.9974 24.3664Z" fill="#85ACAF"/>
</svg>

<svg width="32" height="32" fill="none" xmlns="http://www.w3.org/2000/svg"><path fill-rule="evenodd" clip-rule="evenodd" d="M0 0v5.348l2.266 2.82c.253.315.636.499 1.04.499h25.388c.404 0 .787-.184 1.04-.498L32 5.348V0H0z" fill="#85ACAF"/><path fill-rule="evenodd" clip-rule="evenodd" d="M20.274 13.143h-.848c-.195 1.184-.995 2.048-1.982 2.048v-1.13c.427 0 .9-.61.9-1.483 0-.874-.474-1.483-.9-1.483-.427 0-.901.61-.901 1.483 0 1.466-.893 2.613-2.032 2.613-.986 0-1.786-.864-1.982-2.048h-.803v-1.13h.803c.196-1.184.995-2.048 1.982-2.048v1.13c-.425 0-.9.61-.9 1.483 0 .874.475 1.483.9 1.483.427 0 .902-.61.902-1.483 0-1.465.892-2.613 2.03-2.613.987 0 1.787.864 1.983 2.048h.848v1.13zM8.666 2.927v18.667c0 .736.597 1.333 1.334 1.333h12c.736 0 1.333-.597 1.333-1.333V2.927H8.667z" fill="#FF444F"/><path fill-rule="evenodd" clip-rule="evenodd" d="M16.997 24.366l-1.868-2.81v-3.952a.802.802 0 00-.802-.802h-1.03a.802.802 0 00-.802.802v3.208H9.97a1.333 1.333 0 01-1.333-1.334v-7.624l-1.646 1.35a1.333 1.333 0 00-.468.805L5.47 20.132a1.33 1.33 0 00.198.955l5.24 7.001c.04.074.06.155.06.238V32h6.906l-.667-6.915c0-.255-.072-.504-.21-.719z" fill="#85ACAF"/></svg>
